svgs/1F627.svg

<svg xmlns="http://www.w3.org/2000/svg" xmlns:xlink="http://www.w3.org/1999/xlink" preserveAspectRatio="none" viewBox="0 0 72 72"><defs><path id="a" fill="#FCC21B" d="M127.85 93.45q0-27-8.5-47.1Q103.75 9.65 64 9.65T8.65 46.35Q.1 66.45.1 93.45q0 10.4 18.7 17.75 18.75 7.35 45.2 7.35 26.45 0 45.15-7.35t18.7-17.75z"/><path id="b" fill="#2F2F2F" d="M47.55 48.9q-2.4-2.85-5.75-2.8-3.35.05-5.75 2.9-2.35 2.9-2.3 6.9.05 4 2.45 6.85 2.4 2.8 5.75 2.75 3.35 0 5.75-2.85 2.35-2.9 2.3-6.9-.05-4-2.45-6.85z"/><path id="c" fill="#2F2F2F" d="M91.75 48.95q-2.35-2.85-5.7-2.8-3.35 0-5.75 2.85t-2.4 6.85q0 4 2.4 6.85 2.4 2.85 5.75 2.8 3.4 0 5.75-2.85 2.4-2.85 2.35-6.85 0-4-2.4-6.85z"/><path id="d" fill="#ED6C30" d="M85.65 92.6q-1.05-3.75-4.1-6.9-2.7-2.8-6.15-4.6-5.2-2.75-11.45-2.75-6.2 0-11.45 2.75-3.45 1.8-6.15 4.6-3 3.15-4.05 6.9-1.1 3.85.75 5.1 1.3.85 3.3.7.2-.05 3.4-.7 6.45-1.35 14.2-1.35 7.8 0 14.2 1.35 3.3.65 3.45.7 2 .15 3.3-.7 1.85-1.25.75-5.1z"/><path id="e" fill="none" stroke="#2F2F2F" stroke-linecap="round" stroke-linejoin="round" stroke-width="3" d="M47.165 20.15q5.937-.2 9.52 3.8m-31.716-3.8q-5.937-.2-9.521 3.8"/></defs><use transform="scale(.5625)" xlink:href="#a"/><use transform="matrix(.56248 0 0 .56248 0 .9)" xlink:href="#b"/><use transform="matrix(.56248 0 0 .56248 0 .9)" xlink:href="#c"/><use transform="matrix(.54025 0 0 .58582 1.5 -2)" xlink:href="#d"/><use transform="matrix(.99999 0 0 1 -.01 0)" xlink:href="#e"/></svg>

<svg xmlns="http://www.w3.org/2000/svg" version="1.1" xmlns:xlink="http://www.w3.org/1999/xlink" preserveAspectRatio="none" x="0px" y="0px" width="72px" height="72px" viewBox="0 0 72 72">
<defs>
<g id="Layer0_0_FILL">
<path fill="#FCC21B" stroke="none" d="
M 127.85 93.45
Q 127.85 66.45 119.35 46.35 103.75 9.65 64 9.65 24.25 9.65 8.65 46.35 0.1 66.45 0.1 93.45 0.1 103.85 18.8 111.2 37.55 118.55 64 118.55 90.45 118.55 109.15 111.2 127.85 103.85 127.85 93.45 Z"/>
</g>

<g id="Layer0_1_MEMBER_0_FILL">
<path fill="#2F2F2F" stroke="none" d="
M 47.55 48.9
Q 45.15 46.05 41.8 46.1 38.45 46.15 36.05 49 33.7 51.9 33.75 55.9 33.8 59.9 36.2 62.75 38.6 65.55 41.95 65.5 45.3 65.5 47.7 62.65 50.05 59.75 50 55.75 49.95 51.75 47.55 48.9 Z"/>
</g>

<g id="Layer0_1_MEMBER_1_FILL">
<path fill="#2F2F2F" stroke="none" d="
M 91.75 48.95
Q 89.4 46.1 86.05 46.15 82.7 46.15 80.3 49 77.9 51.85 77.9 55.85 77.9 59.85 80.3 62.7 82.7 65.55 86.05 65.5 89.45 65.5 91.8 62.65 94.2 59.8 94.15 55.8 94.15 51.8 91.75 48.95 Z"/>
</g>

<g id="Layer0_2_FILL">
<path fill="#ED6C30" stroke="none" d="
M 85.65 92.6
Q 84.6 88.85 81.55 85.7 78.85 82.9 75.4 81.1 70.2 78.35 63.95 78.35 57.75 78.35 52.5 81.1 49.05 82.9 46.35 85.7 43.35 88.85 42.3 92.6 41.2 96.45 43.05 97.7 44.35 98.55 46.35 98.4 46.55 98.35 49.75 97.7 56.2 96.35 63.95 96.35 71.75 96.35 78.15 97.7 81.45 98.35 81.6 98.4 83.6 98.55 84.9 97.7 86.75 96.45 85.65 92.6 Z"/>
</g>

<path id="Layer0_3_1_STROKES" stroke="#2F2F2F" stroke-width="3" stroke-linejoin="round" stroke-linecap="round" fill="none" d="
M 47.16517028808594 20.15
Q 53.10210189819336 19.95 56.685655212402345 23.95
M 24.968534088134767 20.15
Q 19.031602478027345 19.95 15.448049163818359 23.95"/>
</defs>

<g id="Layer_1">
<g transform="matrix( 0.5625, 0, 0, 0.5625, 0,0) ">
<use xlink:href="#Layer0_0_FILL"/>
</g>

<g transform="matrix( 0.5624847412109375, 0, 0, 0.5624847412109375, 0,0.9) ">
<use xlink:href="#Layer0_1_MEMBER_0_FILL"/>
</g>

<g transform="matrix( 0.5624847412109375, 0, 0, 0.5624847412109375, 0,0.9) ">
<use xlink:href="#Layer0_1_MEMBER_1_FILL"/>
</g>

<g transform="matrix( 0.540252685546875, 0, 0, 0.5858154296875, 1.5,-2) ">
<use xlink:href="#Layer0_2_FILL"/>
</g>

<g transform="matrix( 1.0697174072265625, 0, 0, 1, -1.4,0) ">
<use xlink:href="#Layer0_3_1_STROKES" transform="matrix( 0.934814453125, 0, 0, 1, 1.3,0) "/>
</g>
</g>
</svg>
